img/twiter.svg

<svg width="30" height="28" viewBox="0 0 30 28" fill="none" xmlns="http://www.w3.org/2000/svg">
<path d="M30 5.25392C28.8844 5.70514 27.6956 6.00423 26.4562 6.14945C27.7312 5.44754 28.7044 4.34456 29.1619 3.01509C27.9731 3.66859 26.6606 4.13018 25.2619 4.38778C24.1331 3.2796 22.5244 2.59326 20.7694 2.59326C17.3644 2.59326 14.6231 5.14154 14.6231 8.26552C14.6231 8.71502 14.6644 9.14722 14.7656 9.55868C9.6525 9.32875 5.12813 7.06918 2.08875 3.6271C1.55812 4.47595 1.24688 5.44754 1.24688 6.49348C1.24688 8.45742 2.34375 10.1983 3.97875 11.2062C2.99062 11.189 2.02125 10.9244 1.2 10.5078C1.2 10.5251 1.2 10.5476 1.2 10.57C1.2 13.3258 3.33187 15.6147 6.1275 16.142C5.62687 16.2682 5.08125 16.3287 4.515 16.3287C4.12125 16.3287 3.72375 16.308 3.35062 16.2319C4.1475 18.4777 6.40875 20.1287 9.0975 20.1823C7.005 21.6915 4.34812 22.6009 1.47188 22.6009C0.9675 22.6009 0.48375 22.5802 0 22.5231C2.72438 24.143 5.95312 25.0679 9.435 25.0679C20.7525 25.0679 26.94 16.4238 26.94 8.93112C26.94 8.68044 26.9306 8.43841 26.9175 8.1981C28.1381 7.39938 29.1637 6.40185 30 5.25392Z" fill="#198C36"/>
</svg>

<svg width="30" height="28" fill="none" xmlns="http://www.w3.org/2000/svg"><path d="M30 5.254a13.68 13.68 0 0 1-3.544.895c1.275-.701 2.248-1.804 2.706-3.134a12.94 12.94 0 0 1-3.9 1.373c-1.129-1.108-2.738-1.795-4.493-1.795-3.405 0-6.146 2.549-6.146 5.673 0 .449.041.881.143 1.293-5.114-.23-9.638-2.49-12.677-5.932a5.374 5.374 0 0 0-.842 2.866c0 1.964 1.097 3.705 2.732 4.713a6.471 6.471 0 0 1-2.779-.698v.062c0 2.756 2.132 5.045 4.928 5.572a6.63 6.63 0 0 1-1.613.187c-.394 0-.791-.021-1.164-.097.796 2.246 3.058 3.897 5.747 3.95-2.093 1.51-4.75 2.419-7.626 2.419-.504 0-.988-.02-1.472-.078 2.724 1.62 5.953 2.545 9.435 2.545 11.318 0 17.505-8.644 17.505-16.137 0-.25-.01-.493-.023-.733A11.79 11.79 0 0 0 30 5.254Z" fill="#198C36"/></svg>
